X: 22
T: Dan Breen's
R:reel
D:Catherine McEvoy & John McEvoy: The Kilmore Fancy
D:Altan: The Red Crow
Z:Julie Ross
M:C|
K:Ador
egdB A2AG|EAAG ABcd|egdB ABAG|EGGF G2Bd|
e2dB A2AG|EAAG ABcd|(3efg dB ABAG|EGGF G2Bd||
e2ge edBd|eAcA eAcA|e2ge edBd|d2ef g2fg|
e2ge edBd|eaag eaag|e3g edBd|d2ef g2fg||

%%sep 1 1 500

